public/static/icons/navbar/ic_calendar.svg

<svg height="24" viewBox="0 0 24 24" width="24" xmlns="http://www.w3.org/2000/svg"><g transform="translate(1.5 1.5)"><path d="m18.9 3.15h-16.8c-1.15931815.00115758-2.09884242.94068185-2.1 2.1v12.95c.00115758 1.1593181.94068185 2.0988424 2.1 2.1h16.8c1.1593181-.0011576 2.0988424-.9406819 2.1-2.1v-12.95c-.0011576-1.15931815-.9406819-2.09884242-2.1-2.1zm0 16.45h-16.8c-.77319865 0-1.4-.6268014-1.4-1.4v-10.5h19.6v10.5c0 .7731986-.6268014 1.4-1.4 1.4zm-2.45-17.15v-1.75c0-.38659932-.3134007-.7-.7-.7s-.7.31340068-.7.7v1.75zm-10.5 0v-1.75c0-.38659932-.31340068-.7-.7-.7s-.7.31340068-.7.7v1.75z"/><path d="m5.99840724 14.441644c.55228475 0 1 .4477153 1 1v1.6c0 .5522848-.44771525 1-1 1h-2.2c-.55228475 0-1-.4477152-1-1v-1.6c0-.5522847.44771525-1 1-1zm5.60159276 0c.5522847 0 1 .4477153 1 1v1.6c0 .5522848-.4477153 1-1 1h-2.2c-.55228475 0-1-.4477152-1-1v-1.6c0-.5522847.44771525-1 1-1zm-5.60159276-5.0001284c.55228475 0 1 .44771525 1 1v1.6c0 .5522848-.44771525 1-1 1h-2.2c-.55228475 0-1-.4477152-1-1v-1.6c0-.55228475.44771525-1 1-1zm5.60159276 0c.5522847 0 1 .44771525 1 1v1.6c0 .5522848-.4477153 1-1 1h-2.2c-.55228475 0-1-.4477152-1-1v-1.6c0-.55228475.44771525-1 1-1zm5.6015928 0c.5522847 0 1 .44771525 1 1v1.6c0 .5522848-.4477153 1-1 1h-2.2c-.5522848 0-1-.4477152-1-1v-1.6c0-.55228475.4477152-1 1-1z" opacity=".48"/></g></svg>

<svg xmlns="http://www.w3.org/2000/svg" width="24" height="24" viewBox="0 0 24 24">
  <g transform="translate(1.5 1.5)">
    <path d="M18.9 3.15L2.1 3.15C.94068185 3.15115758.00115758264 4.09068185 0 5.25L0 18.2C.00115758264 19.3593181.94068185 20.2988424 2.1 20.3L18.9 20.3C20.0593181 20.2988424 20.9988424 19.3593181 21 18.2L21 5.25C20.9988424 4.09068185 20.0593181 3.15115758 18.9 3.15zM18.9 19.6L2.1 19.6C1.32680135 19.6.7 18.9731986.7 18.2L.7 7.7 20.3 7.7 20.3 18.2C20.3 18.9731986 19.6731986 19.6 18.9 19.6zM16.45 2.45L16.45.7C16.45.313400675 16.1365993 0 15.75 0 15.3634007 0 15.05.313400675 15.05.7L15.05 2.45 16.45 2.45zM5.95 2.45L5.95.7C5.95.313400675 5.63659932 0 5.25 0 4.86340068 0 4.55.313400675 4.55.7L4.55 2.45 5.95 2.45z"/>
    <path d="M5.99840724,14.441644 C6.55069199,14.441644 6.99840724,14.8893593 6.99840724,15.441644 L6.99840724,17.041644 C6.99840724,17.5939288 6.55069199,18.041644 5.99840724,18.041644 L3.79840724,18.041644 C3.24612249,18.041644 2.79840724,17.5939288 2.79840724,17.041644 L2.79840724,15.441644 C2.79840724,14.8893593 3.24612249,14.441644 3.79840724,14.441644 L5.99840724,14.441644 Z M11.6,14.441644 C12.1522847,14.441644 12.6,14.8893593 12.6,15.441644 L12.6,17.041644 C12.6,17.5939288 12.1522847,18.041644 11.6,18.041644 L9.4,18.041644 C8.84771525,18.041644 8.4,17.5939288 8.4,17.041644 L8.4,15.441644 C8.4,14.8893593 8.84771525,14.441644 9.4,14.441644 L11.6,14.441644 Z M5.99840724,9.4415156 C6.55069199,9.4415156 6.99840724,9.88923085 6.99840724,10.4415156 L6.99840724,12.0415156 C6.99840724,12.5938004 6.55069199,13.0415156 5.99840724,13.0415156 L3.79840724,13.0415156 C3.24612249,13.0415156 2.79840724,12.5938004 2.79840724,12.0415156 L2.79840724,10.4415156 C2.79840724,9.88923085 3.24612249,9.4415156 3.79840724,9.4415156 L5.99840724,9.4415156 Z M11.6,9.4415156 C12.1522847,9.4415156 12.6,9.88923085 12.6,10.4415156 L12.6,12.0415156 C12.6,12.5938004 12.1522847,13.0415156 11.6,13.0415156 L9.4,13.0415156 C8.84771525,13.0415156 8.4,12.5938004 8.4,12.0415156 L8.4,10.4415156 C8.4,9.88923085 8.84771525,9.4415156 9.4,9.4415156 L11.6,9.4415156 Z M17.2015928,9.4415156 C17.7538775,9.4415156 18.2015928,9.88923085 18.2015928,10.4415156 L18.2015928,12.0415156 C18.2015928,12.5938004 17.7538775,13.0415156 17.2015928,13.0415156 L15.0015928,13.0415156 C14.449308,13.0415156 14.0015928,12.5938004 14.0015928,12.0415156 L14.0015928,10.4415156 C14.0015928,9.88923085 14.449308,9.4415156 15.0015928,9.4415156 L17.2015928,9.4415156 Z" opacity=".48"/>
  </g>
</svg>
